X: 1
T: Johny Monfarleau
M: 6/8
L: 1/8
R: jig
K: Dmaj
D |: GGG E2D | GzG EED | GzG G2B |
ABA E2E |ABA EGE | ABA B2B |
[1 BAG DEF | G z4 D :|[2 BAG DEF | GzD Gz2 ||
